X:1
T:Les pies du matin
M:C
L:1/8
Q:180
C:(c) Greg Anderson, 29 Oct 1999
R:Slow Reel
N:A pair of beautiful magpies lived in a tree across from our apartment,
N:and each morning they would go through their territorial rituals,
N:flitting from tree to tree, as they set out on their daily wanderings
K:E
BG EB, E2 E2|AF DB, D2 D2|B,C EF GA Bc|B2 AB F4|
BG EB, E2 E2|AF DB, D2 D2|CE Ac BA GB|AG FG E2 A2:|
BB eB fB eB|Be fB A2 BA|GA BB GB FB|EB DB E4|
BB eB fB eB|Bd eG A2 GA|BG EB, DE BA|1G2 FG E2 GA:|2GA Bd e4||
